src/icons/record-keys.svg

<svg width="16" height="16" viewBox="0 0 16 16" fill="none" xmlns="http://www.w3.org/2000/svg">
<path fill-rule="evenodd" clip-rule="evenodd" d="M14 3H3C2.73478 3 2.48044 3.10531 2.29291 3.29285C2.10537 3.48038 2 3.73478 2 4V11C2 11.2652 2.10537 11.5196 2.29291 11.7072C2.48044 11.8947 2.73478 12 3 12H14C14.2652 12 14.5196 11.8947 14.7071 11.7072C14.8946 11.5196 15 11.2652 15 11V4C15 3.73478 14.8946 3.48038 14.7071 3.29285C14.5196 3.10531 14.2652 3 14 3ZM14 11H3V4H14V11ZM11 5H10V6H11V5ZM10 7H9V8H10V7ZM12 5H13V6H12V5ZM13 9H12V10H13V9ZM6 9H11V10H6V9ZM13 7H11V8H13V7ZM8 5H9V6H8V5ZM8 7H7V8H8V7ZM4 9H5V10H4V9ZM4 5H5V6H4V5ZM7 5H6V6H7V5ZM4 7H6V8H4V7Z" fill="#C5C5C5"/>
</svg>

<svg width="16" height="16" xmlns="http://www.w3.org/2000/svg"><path fill-rule="evenodd" clip-rule="evenodd" d="M14 3H3a1 1 0 0 0-1 1v7a1 1 0 0 0 1 1h11a1 1 0 0 0 1-1V4a1 1 0 0 0-1-1zm0 8H3V4h11v7zm-3-6h-1v1h1V5zm-1 2H9v1h1V7zm2-2h1v1h-1V5zm1 4h-1v1h1V9zM6 9h5v1H6V9zm7-2h-2v1h2V7zM8 5h1v1H8V5zm0 2H7v1h1V7zM4 9h1v1H4V9zm0-4h1v1H4V5zm3 0H6v1h1V5zM4 7h2v1H4V7z"/></svg>
